packages/web-icons/svgs/scroll.svg

<svg viewBox="0 0 64 48" xmlns="http://www.w3.org/2000/svg" class="ridi_icon"><path d="M42.6 10.6C42.6 4.7 47.4 0 53.2 0s10.6 4.7 10.6 10.6H42.6zM40 16.7l7.8 14.8c1.1 1.7 1.8 3.7 1.8 5.9C49.6 43.2 44.9 48 39 48c-5.8 0-10.6-4.7-10.6-10.6 0-1.6.4-3.2 1-4.5h-7.8l-4.8-18.3c-.5-1.3-.8-2.6-.8-4C16 4.7 20.8 0 26.6 0h16.7c-2.8 2.6-4.6 6.4-4.6 10.6 0 2.2.5 4.2 1.3 6.1zM29.3 48c-2.9-2.6-4.7-6.4-4.7-10.7v-.6H.2v.7C.2 43.3 5 48 10.8 48h18.5z"/></svg>

<?xml version="1.0" encoding="UTF-8"?>
<svg width="64px" height="48px" viewBox="0 0 64 48" version="1.1" xmlns="http://www.w3.org/2000/svg">
  <!-- Generator: Sketch 41.2 (35397) - http://www.bohemiancoding.com/sketch -->
  <title>scroll</title>
  <desc>Created with Sketch.</desc>
  <defs></defs>
  <g id="Page-1" stroke="none" stroke-width="1" fill="none" fill-rule="evenodd">
    <g id="scroll" fill="#444444">
      <g id="레이어_1">
        <path d="M42.6,10.6 C42.6,4.7 47.4,0 53.2,0 C59,0 63.8,4.7 63.8,10.6 L42.6,10.6 L42.6,10.6 Z M40,16.7 L47.8,31.5 C48.9,33.2 49.6,35.2 49.6,37.4 C49.6,43.2 44.9,48 39,48 C33.2,48 28.4,43.3 28.4,37.4 C28.4,35.8 28.8,34.2 29.4,32.9 L21.6,32.9 L16.8,14.6 C16.3,13.3 16,12 16,10.6 C16,4.7 20.8,0 26.6,0 L26.9,0 L26.9,0 L43.3,0 C40.5,2.6 38.7,6.4 38.7,10.6 C38.7,12.8 39.2,14.8 40,16.7 L40,16.7 Z M29.3,48 C26.4,45.4 24.6,41.6 24.6,37.3 L24.6,36.7 L0.2,36.7 L0.2,37.4 C0.2,43.3 5,48 10.8,48 L29.3,48 L29.3,48 Z" id="Shape"></path>
      </g>
    </g>
  </g>
</svg>
